%%%
  VERSION:1
  LANGUAGE:ENGLISH
%%%

MODULE CALIB1
  PROC main()
    MoveL [[739.91,928.22,-109.08],[0.009537,-0.712224,-0.701684,-0.016929],[0,0,1,0],[9E+09,9E+09,9E+09,9E+09,9E+09,9E+09]],v1000,z50,tool0;
    MoveL [[2.52,-2287.26,2574.71],[0.065401,0.918444,0.383152,0.073334],[-2,0,0,0],[9E+09,9E+09,9E+09,9E+09,9E+09,9E+09]],v1000,z50,tool0;
    MoveL [[739.91,928.22,-109.08],[0.009537,-0.712228,-0.701679,-0.016925],[0,0,1,0],[9E+09,9E+09,9E+09,9E+09,9E+09,9E+09]],v1000,z50,tool0;
    MoveL [[1472.34,1231.81,-41.05],[0.011379,-0.712458,-0.701447,-0.015673],[0,0,1,0],[9E+09,9E+09,9E+09,9E+09,9E+09,9E+09]],v1000,z50,tool0;
    MoveL [[1472.3,1173.6,2216.34],[0.011383,-0.712448,-0.701458,-0.01567],[0,0,1,0],[9E+09,9E+09,9E+09,9E+09,9E+09,9E+09]],v1000,z50,tool0;
    MoveL [[1354.47,724.12,2597.37],[0.011388,-0.712448,-0.701458,-0.015664],[0,0,1,0],[9E+09,9E+09,9E+09,9E+09,9E+09,9E+09]],v1000,z50,tool0;
    MoveL [[1357.39,-104.22,2567.84],[0.013497,-0.804634,-0.593456,-0.013901],[-1,0,1,0],[9E+09,9E+09,9E+09,9E+09,9E+09,9E+09]],v1000,z50,tool0;
   
    MoveL [[691.13,-1460.83,2417.57],[0.079971,0.880915,0.464663,0.041008],[-1,0,0,0],[9E+09,9E+09,9E+09,9E+09,9E+09,9E+09]],v1000,z50,tool0;
    MoveL [[-87.8,-2338.86,2399.27],[0.038685,0.926109,0.36976,0.064052],[-2,0,0,0],[9E+09,9E+09,9E+09,9E+09,9E+09,9E+09]],v1000,z50,tool0;
    MoveL [[-87.8,-2338.89,504.31],[0.001774,0.921393,0.387663,-0.027395],[-2,-1,0,0],[9E+09,9E+09,9E+09,9E+09,9E+09,9E+09]],v1000,z50,tool0;
    MoveL [[-87.81,-2319.54,-201.79],[0.002096,0.925911,0.376744,-0.027372],[-2,-1,0,0],[9E+09,9E+09,9E+09,9E+09,9E+09,9E+09]],v1000,z50,tool0;
    MoveL [[-354.12,-1853.16,-201.79],[0.002096,0.925913,0.37674,-0.027373],[-2,-1,0,0],[9E+09,9E+09,9E+09,9E+09,9E+09,9E+09]],v1000,z50,tool0;
    MoveL [[-354.08,-1852.96,-201.92],[0.01668,0.9811,-0.191548,-0.021761],[-2,-1,1,0],[9E+09,9E+09,9E+09,9E+09,9E+09,9E+09]],v1000,z50,tool0;
    MoveL [[-354.09,-1362.14,-201.92],[0.025391,0.749742,-0.661162,-0.010351],[-2,-1,1,0],[9E+09,9E+09,9E+09,9E+09,9E+09,9E+09]],v1000,z50,tool0;
    MoveL [[-456.77,-1570.51,-201.92],[0.027405,0.412612,-0.910495,0.000978],[-2,-1,2,0],[9E+09,9E+09,9E+09,9E+09,9E+09,9E+09]],v1000,z50,tool0;
    MoveL [[-750.81,-1182.97,-0.49],[0.027192,0.559093,-0.828651,-0.003625],[-2,-1,1,0],[9E+09,9E+09,9E+09,9E+09,9E+09,9E+09]],v1000,z50,tool0;
  ENDPROC
ENDMODULE

